icons/compass.svg

<svg width="24" height="24" viewBox="0 0 24 24" fill="none" xmlns="http://www.w3.org/2000/svg">
<path fill-rule="evenodd" clip-rule="evenodd" d="M4.06189 11H5C5.55228 11 6 11.4477 6 12C6 12.5523 5.55228 13 5 13H4.06189C4.51314 16.6187 7.38128 19.4869 11 19.9381V19C11 18.4477 11.4477 18 12 18C12.5523 18 13 18.4477 13 19V19.9381C16.6187 19.4869 19.4869 16.6187 19.9381 13H19C18.4477 13 18 12.5523 18 12C18 11.4477 18.4477 11 19 11H19.9381C19.4869 7.38128 16.6187 4.51314 13 4.06189V5C13 5.55228 12.5523 6 12 6C11.4477 6 11 5.55228 11 5V4.06189C7.38128 4.51314 4.51314 7.38128 4.06189 11ZM2 12C2 6.47715 6.47715 2 12 2C17.5228 2 22 6.47715 22 12C22 17.5228 17.5228 22 12 22C6.47715 22 2 17.5228 2 12ZM16.7071 7.29289C16.9749 7.56073 17.0685 7.95689 16.9487 8.31623L14.9487 14.3162C14.8491 14.6148 14.6148 14.8491 14.3162 14.9487L8.31623 16.9487C7.95689 17.0685 7.56073 16.9749 7.29289 16.7071C7.02506 16.4393 6.93154 16.0431 7.05132 15.6838L9.05132 9.68377C9.15085 9.38517 9.38517 9.15085 9.68377 9.05132L15.6838 7.05132C16.0431 6.93154 16.4393 7.02506 16.7071 7.29289ZM10.7906 10.7906L9.58114 14.4189L13.2094 13.2094L14.4189 9.58114L10.7906 10.7906Z" fill="black"/>
</svg>

<svg
  width="24"
  height="24"
  viewBox="0 0 24 24"
  xmlns="http://www.w3.org/2000/svg"
>
  <path
    fill-rule="evenodd"
    clip-rule="evenodd"
    d="M4.062 11H5a1 1 0 1 1 0 2h-.938A8.004 8.004 0 0 0 11 19.938V19a1 1 0 1 1 2 0v.938A8.004 8.004 0 0 0 19.938 13H19a1 1 0 1 1 0-2h.938A8.004 8.004 0 0 0 13 4.062V5a1 1 0 1 1-2 0v-.938A8.004 8.004 0 0 0 4.062 11zM2 12C2 6.477 6.477 2 12 2s10 4.477 10 10-4.477 10-10 10S2 17.523 2 12zm14.707-4.707a1 1 0 0 1 .242 1.023l-2 6a1 1 0 0 1-.633.633l-6 2a1 1 0 0 1-1.265-1.265l2-6a1 1 0 0 1 .633-.633l6-2a1 1 0 0 1 1.023.242zm-5.916 3.498l-1.21 3.628 3.628-1.21 1.21-3.628-3.628 1.21z"
  />
</svg>
